X: 1449
T: The Reel Of Bogie
M:C|
L:1/8
N:"collected by Ennis"
B:O'Neill's 1449
Z:"Transcribed by Bob Safranek, rjs@gsp.org"
K:Em
dc   | BE ((3{F}EDE) (BA)FA | BFAF DEFA | BE ((3{F}EDE) (BA)FA | d^cdf e2 (dc)|
       BE ((3{F}EDE) (BA)FA | BFAF DEFA | d^cde          fdec  | dBAF  E2     ||
(FE) | D2 ((3AB^c) dcdA | ((3B^cd) (AF) BFAF | D2 ((3AB^c) dcde  | fdcA BFAF|
       D2 ((3AB^c) dcdf |   e^def    g2 (fg) |   afge      fde^c | dBAF E2  |]


